findly-builder/apps/searchassist/src/assets/icons/content/carousel-exp.svg

<svg width="60" height="60" viewBox="0 0 60 60" fill="none" xmlns="http://www.w3.org/2000/svg">
<circle cx="30" cy="30" r="29.5" fill="white" stroke="#93D3A2"/>
<path d="M35.0355 27.3213H25.3926L14.0199 40.9592C13.9726 41.0064 13.9321 41.0595 13.8868 41.1067L13.6554 41.3661H13.6746C13.1694 42.017 12.8569 42.8251 12.8569 43.7141C12.8569 45.8443 14.584 47.5713 16.7141 47.5713H43.7141C45.8442 47.5713 47.5712 45.8443 47.5712 43.7141C47.5712 42.855 47.281 42.07 46.8065 41.4298H46.821L46.6465 41.2359C46.5578 41.1318 46.4719 41.0248 46.3736 40.9312L35.0355 27.3213Z" fill="#93D3A2"/>
<path d="M25.3931 15.75H35.0359V28.6878H25.3931V15.75Z" fill="#93D3A2"/>
<path d="M36.9644 14.7855C36.9644 15.8501 36.1004 16.7141 35.0358 16.7141H25.3929C24.3284 16.7141 23.4644 15.8501 23.4644 14.7855C23.4644 13.7209 24.3284 12.8569 25.3929 12.8569H35.0358C36.1004 12.8569 36.9644 13.7209 36.9644 14.7855Z" fill="#93D3A2"/>
<path d="M45.2585 42.5785L45.245 42.5602L45.2122 42.5235L45.193 42.5033L45.1746 42.483L45.1283 42.4271C45.0985 42.3914 45.0695 42.3548 45.0367 42.322L44.9818 42.269L44.9365 42.2179L38.577 34.5537H21.8476L15.4553 42.2477L15.4206 42.2863L15.4081 42.2989C15.3715 42.3413 15.3425 42.375 15.3126 42.4059L15.2741 42.4493L15.1988 42.5476C15.0108 42.7906 14.7861 43.1908 14.7861 43.7144C14.7861 44.778 15.6511 45.643 16.7147 45.643H43.7147C44.7783 45.643 45.6433 44.778 45.6433 43.7144C45.6433 43.2053 45.4331 42.8157 45.2585 42.5785Z" fill="#FFED96"/>
<path d="M35.0359 37.9287C34.2687 37.9287 33.5329 38.2335 32.9904 38.776C32.4478 39.3185 32.1431 40.0543 32.1431 40.8216C32.1431 41.5888 32.4478 42.3246 32.9904 42.8671C33.5329 43.4096 34.2687 43.7144 35.0359 43.7144C35.8032 43.7144 36.539 43.4096 37.0815 42.8671C37.624 42.3246 37.9288 41.5888 37.9288 40.8216C37.9288 40.0543 37.624 39.3185 37.0815 38.776C36.539 38.2335 35.8032 37.9287 35.0359 37.9287Z" fill="#FFFBEA"/>
<path d="M28.286 36C27.7745 36 27.284 36.2032 26.9223 36.5649C26.5606 36.9265 26.3574 37.4171 26.3574 37.9286C26.3574 38.4401 26.5606 38.9306 26.9223 39.2923C27.284 39.654 27.7745 39.8571 28.286 39.8571C28.7975 39.8571 29.288 39.654 29.6497 39.2923C30.0114 38.9306 30.2146 38.4401 30.2146 37.9286C30.2146 37.4171 30.0114 36.9265 29.6497 36.5649C29.288 36.2032 28.7975 36 28.286 36Z" fill="#FFFBEA"/>
<path d="M31.1785 27.3214C30.667 27.3214 30.1765 27.5245 29.8148 27.8862C29.4531 28.2479 29.2499 28.7384 29.2499 29.2499C29.2499 29.7614 29.4531 30.252 29.8148 30.6136C30.1765 30.9753 30.667 31.1785 31.1785 31.1785C31.69 31.1785 32.1805 30.9753 32.5422 30.6136C32.9039 30.252 33.1071 29.7614 33.1071 29.2499C33.1071 28.7384 32.9039 28.2479 32.5422 27.8862C32.1805 27.5245 31.69 27.3214 31.1785 27.3214ZM29.7321 21.5356C29.3485 21.5356 28.9806 21.688 28.7093 21.9593C28.438 22.2306 28.2856 22.5985 28.2856 22.9821C28.2856 23.3657 28.438 23.7336 28.7093 24.0049C28.9806 24.2761 29.3485 24.4285 29.7321 24.4285C30.1157 24.4285 30.4836 24.2761 30.7549 24.0049C31.0261 23.7336 31.1785 23.3657 31.1785 22.9821C31.1785 22.5985 31.0261 22.2306 30.7549 21.9593C30.4836 21.688 30.1157 21.5356 29.7321 21.5356Z" fill="white"/>
</svg>

<svg width="60" height="60" fill="none" xmlns="http://www.w3.org/2000/svg"><circle cx="30" cy="30" r="29.5" fill="#fff" stroke="#93D3A2"/><path d="M35.035 27.321h-9.642L14.02 40.96c-.047.047-.088.1-.133.148l-.232.26h.02a3.813 3.813 0 0 0-.818 2.347 3.857 3.857 0 0 0 3.857 3.857h27a3.857 3.857 0 0 0 3.857-3.857c0-.859-.29-1.644-.764-2.284h.014l-.174-.194c-.09-.104-.175-.211-.273-.305l-11.339-13.61Z" fill="#93D3A2"/><path d="M25.393 15.75h9.643v12.938h-9.643V15.75Z" fill="#93D3A2"/><path d="M36.964 14.786a1.93 1.93 0 0 1-1.928 1.928h-9.643a1.93 1.93 0 0 1 0-3.857h9.643a1.93 1.93 0 0 1 1.928 1.929Z" fill="#93D3A2"/><path d="m45.258 42.578-.013-.018-.033-.037-.019-.02-.018-.02-.047-.056c-.03-.036-.059-.072-.091-.105l-.055-.053-.045-.051-6.36-7.664h-16.73l-6.392 7.694-.034.038-.013.013c-.037.042-.066.076-.095.107l-.039.043-.075.099a1.91 1.91 0 0 0-.413 1.166 1.93 1.93 0 0 0 1.929 1.929h27a1.93 1.93 0 0 0 1.928-1.929c0-.509-.21-.898-.385-1.136Z" fill="#FFED96"/><path d="M35.036 37.929a2.893 2.893 0 1 0 0 5.785 2.893 2.893 0 0 0 0-5.785ZM28.286 36a1.929 1.929 0 1 0 0 3.857 1.929 1.929 0 0 0 0-3.857Z" fill="#FFFBEA"/><path d="M31.178 27.321a1.928 1.928 0 1 0 0 3.857 1.928 1.928 0 0 0 0-3.857Zm-1.446-5.785a1.446 1.446 0 1 0 0 2.893 1.446 1.446 0 0 0 0-2.893Z" fill="#fff"/></svg>
